X:1
T:Title
%%score { ( 1 3 ) | ( 2 4 ) }
L:1/8
M:4/4
K:Bb
V:1 treble nm="Grand Piano"
V:3 treble 
V:2 bass 
V:4 bass 
V:1
 z4 z2[Q:1/4=108] [DF]2 | [DF]3 [EG] [DF]2 [DB]2 | [Fd]2 [Ec]2 [DB]2 [DF]2 | G2 B2 cB G2 | %4
[M:7/8] z2 B z z z2 |[M:1/4] F2 |[M:4/4] [DF]3 [EG] [DF]2 [DB]2 | [Fd]2 [Ec]2 [DB]2 [DF]2 | %8
 G2 B2 cB [CA]2 |[M:3/4] [DB]6 |[M:12/8] z3 [DF]6- [DF] z z |[M:9/8] z3[K:bass] [DB]6- | %12
[M:3/8] [DB]3 | [B,DB]3 |[M:6/4] .[Ec]12 |[M:9/8] [Fd]8- [Fd] |[M:3/8] [Fd]3 | %17
[M:6/4] d2 c e2 d c4 z E | [Ec]2 [DB] [Fd]2 [Ec] [DB]3 [DF]3 | %19
 [EG][FA][GB][Gc][GB][EG] [DF]3 [CA][DB][Ec] |[M:9/8] B8- B |] %21
V:2
 z4 z2 [B,,B,]2 | [B,,B,]3 [B,,B,] [B,,B,]2 [B,,B,]2 | [B,,B,]2 [B,,F,]2 [B,,F,]2 [B,,B,]2 | %3
 [E,B,E]2 [E,G,E]2 [E,G,E]2 [E,B,E]2 |[M:7/8] [B,,B,]2 G, B, [F,A,F]3 |[M:1/4] [F,A,E]2 | %6
[M:4/4] [B,,B,]3 [B,,B,] [B,,B,]2 [B,,B,]2 | [B,,B,]2 [B,,F,]2 [B,,F,]2 [B,,B,]2 | %8
 [E,B,E]2 [G,B,E]2 ED [F,,F,]2 |[M:3/4] [B,,F,]6 | %10
[M:12/8] [B,,B,]3 [B,,B,]B,,B,, B,,B,,B,, B,,B,C |[M:9/8] DE[B,,F,] [B,,F,]B,,B,, B,,B,,B,, | %12
[M:3/8] B,,3 | B,,3 |[M:6/4] [F,A,]F,F,F,F,F, F,EEED[F,A,E] |[M:9/8] B,B,B, B,B,B, B,3 | %16
[M:3/8] [B,,B,]3 |[M:6/4] [F,B,F]2 [F,A,F] [F,CF]2 [F,B,F] [F,A,F]3 .[F,A,F]3 | %18
 [B,,B,]2 [B,,F,] [B,,F,]2 [B,,F,] [B,,F,]3 [B,,B,]3 | %19
 [E,B,][E,B,][E,E][E,E][E,E][E,B,] [F,B,]3 [F,,F,][F,,F,][F,,F,] |[M:9/8] F,3 z3 z3 |] %21
V:3
 x8 | x8 | x8 | x8 |[M:7/8] [DF]2 =E- [Ed] c3 |[M:1/4] x2 |[M:4/4] x8 | x8 | x8 |[M:3/4] x6 | %10
[M:12/8] [DF]3 z B,B, B,B,B, B,DE |[M:9/8] FG[EA][K:bass] z F,F, F,F,F, |[M:3/8] F,3 | x3 | %14
[M:6/4] z A,A,A,A,A, A,cccBc |[M:9/8] x9 |[M:3/8] x3 |[M:6/4] z6 z2 z c3 | x12 | x12 | %20
[M:9/8] D3 ED_D =D3 |] %21
V:4
 x8 | x8 | x8 | x8 |[M:7/8] z2 C,2 z z2 |[M:1/4] x2 |[M:4/4] x8 | x8 | z4 F,2 z2 |[M:3/4] x6 | %10
[M:12/8] x12 |[M:9/8] x9 |[M:3/8] x3 | x3 |[M:6/4] x12 |[M:9/8] x9 |[M:3/8] x3 |[M:6/4] x12 | x12 | %19
 x12 |[M:9/8] B,,3- [B,,-G,][B,,-F,][B,,-=E,] [B,,F,]3 |] %21

